X:1
T:Title
%%score { ( 1 3 ) | ( 2 4 ) }
L:1/8
M:4/4
K:Ab
V:1 treble nm="Grand Piano"
V:3 treble 
V:2 bass 
V:4 bass 
V:1
 z4 z2[Q:1/4=94] [Ec]>[Ec] | [DB]>[DB] [CA]>[CA] [DG]>[DG] [DF]>[DE] | G2 F2 E2 EF | %3
 G>G B>B [Ge][Gd] [EB]>[E_c] | [Ec]2 [Fd]2 [Ec]2 [Ec]>[Ec] | [DB]>[DB] [CA]>[CA] [DG]>[DG] FE | %6
 G>G A>A B2 [GB]>[GB] | [A=d]>[Ad] [Ac]>[Ac] [GB][FA][EG][CEA] |[M:3/4] [B,=DG]2 [A,DF]2 E2 | %9
[M:1/4] EF |[M:4/4] z/ [Gd]3/2- [Gd]4 z2 |[M:3/4] [Ec]<[CE] [EG]>F E2 |[M:1/4] E[=DF] | %13
[M:4/4] z/ d3/2- d4 z2 | [EA][Ee] [Ee]>[Ee] [Ee]2 [CE][CF] | [DG]2 d2 d2 G2 | [DF][CE][EA]B c2 cd | %17
 efec c2 A2 | [EAc]2 [DGB]2 [CEA]4 |] %19
V:2
 z4 z2 [A,,A,]>[A,,A,] | [A,,A,]>[A,,A,] [A,,E,]>[A,,E,] [B,,E,]>[B,,E,] [B,,G,]>[B,,G,] | %2
 [E,B,D]2 [E,A,D]2 [E,G,D]2 [E,G,D][E,A,D] | %3
 [E,B,D]>[E,B,D] [E,G,E]>[E,G,E] [E,B,][E,B,] [E,G,]>[E,G,] | %4
 [A,,A,]2 [A,,A,]2 [A,,A,]2 [A,,A,]>[A,,A,] | %5
 [A,,A,]>[A,,A,] [A,,E,]>[A,,E,] [B,,E,]>[B,,E,] [E,G,D][E,G,D] | %6
 [E,B,E]>[E,B,E] [E,CE]>[E,CE] [E,G,E]2 [E,B,]>[E,B,] | %7
 [B,,B,]>[B,,B,] [B,,B,]>[B,,B,] [B,,B,][B,,B,][B,,B,]B,, |[M:3/4] B,,2 B,,2 [E,G,B,]2 | %9
[M:1/4] [E,G,][E,A,E] |[M:4/4] [E,B,E]<B, z2 z2 [E,G,D][E,G,] | %11
[M:3/4] [A,,A,]<[A,,A,] [D,A,]>[D,A,D] [C,A,]2 |[M:1/4] [C,A,][_C,A,] | %13
[M:4/4] [B,,E,]<[B,,E,] [E,G,][F,A,] [G,B,][G,B,][E,G,E][E,G,E] | %14
 [C,A,][A,C] [A,C]>[A,C] [A,C]2 [A,,A,][A,,A,] | [B,,E,]2 [E,G,E]2 [E,G,E]2 [E,B,D]2 | %16
 [A,,A,][A,,A,][C,A,][E,G,E][K:treble] [A,E]2 [A,A][A,B,A] | %17
 [A,CA][A,DA][A,CA][A,EA] [A,EA]2[K:bass] [A,C]2 | E,2 E,2 A,,4 |] %19
V:3
 x8 | x8 | x8 | x8 | x8 | x8 | x8 | x8 |[M:3/4] x6 |[M:1/4] x2 |[M:4/4] .G2 D>C B,G,F[Fd] | %11
[M:3/4] x6 |[M:1/4] x2 |[M:4/4] [DG]<G EE EEcB | x8 | x8 | x8 | x8 | x8 |] %19
V:4
 x8 | x8 | x8 | x8 | x8 | x8 | x8 | x8 |[M:3/4] x6 |[M:1/4] x2 |[M:4/4] z/ E,3/2- E,4 z2 | %11
[M:3/4] x6 |[M:1/4] x2 |[M:4/4] x8 | x8 | x8 | x4[K:treble] x4 | x6[K:bass] x2 | x8 |] %19

